!!!!SEGMENT: pl-sa--144-a-iii-44--005_anonim--msza-dominikalnska-agnus-dei.krn
!!!cenid: 17xx:1671
!!!COM: Anonim
!!!COM-rismid: pe30004985
!!!CDT:
!!!CNT:
!!!OPR: Msza Dominikańska
!!!OTL: Agnus Dei
!!!OMV: 005
!!!PDT:
!!!AGN: Sacred; Mass
!!!SMS-siglum: PL-SA
!!!SMS-shelfmark: 144/A III 44
!!!SMS-shelfwork: 001-005 M
!!!SMS-variant: Canto PL-SA III 144/A 44:12
!!!SMS-altvar: Canto Primo PL-SA III 144/A 44:4
!!!NIFC-rismid: 1001035510
!!!URL-scan: http://bc.bdsandomierz.pl/dlibra/publication/1501/edition/1469/content
!!!ONB-nifc: UWAGA: części Mszy: 1. Kyrie, 2. Laudamus, 3. Patrem, 4. Sanctus, 5. Agnus Dei
!!!AIN: 2 soprn
!!!key:
**kern	**text	**kern	**text
*part2	*part2	*part1	*part1
*staff2	*staff2	*staff1	*staff1
*I"Canto 2do.	*	*I"Canto	*
*I'S II	*	*I'S I	*
*ICvox	*	*ICvox	*
*Isoprn	*	*Isoprn	*
*clefC1	*	*clefC1	*
*k[b-]	*	*k[b-]	*
*F:	*	*F:	*
*M2/2	*	*M2/2	*
*met(C.|)	*	*met(C.|)	*
=1	=1	=1	=1
!!LO:TX:t=P:problem:2\right	!	!	!
1a	A-	1cc	A-
=2	=2	=2	=2
2f/	.	2a\	.
2e/	-gnus	2g\	-gnus
=3	=3	=3	=3
1f	De-	1f	De-
=4	=4	=4	=4
2g/	-i	2b-\	-i
2f/	qui	2a\	qui
=5	=5	=5	=5
1e	tol-	1g	tol-
=6	=6	=6	=6
2a\	-lis	2cc\	-lis
2g\	pec-	2b-\	pec-
=7	=7	=7	=7
2f/	-ca-	2a\	-ca-
4g/	-ta	4b-\	-ta
4a/	.	4cc\	.
=8	=8	=8	=8
1b-	mun-	1dd	mun-
=9	=9	=9	=9
1a	-di	1cc	-di
!LO:LB:g=original	!	!	!
=10	=10	=10	=10
2f/	mi-	2a\	mi-
2f/	-se-	2a\	-se-
=11	=11	=11	=11
1g	-re-	1b-	-re-
=12	=12	=12	=12
2g\	-re	2b-\	-re
2f\	.	2a\	.
!	!	!LO:LB:g=original	!
=13	=13	=13	=13
1e	no-	1g	no-
=14	=14	=14	=14
2a\	.	2cc\	.
2g\	.	2b-\	.
=15	=15	=15	=15
1f	.	1a	.
=16	=16	=16	=16
2e/	.	1g	.
2e/	.	.	.
=17	=17	=17	=17
2f/	.	2a\	.
2a/	.	2cc\	.
=18	=18	=18	=18
1b-	.	1dd	.
=19	=19	=19	=19
4b-\	.	4dd\	.
4a\	.	4cc\	.
4g\	.	4b-\	.
4f/	.	4a\	.
=20	=20	=20	=20
1e	.	1g	.
=21	=21	=21	=21
1f	bis.	1a	bis.
=22||	=22||	=22||	=22||
2f/	A-	2a\	A-
2f/	-gnus	2a\	-gnus
=23	=23	=23	=23
2g/	De-	2b-\	De-
2g/	-i	2b-\	-i
!LO:LB:g=original	!	!	!
=24	=24	=24	=24
2a\	.	2cc\	.
2g\	qui	2b-\	qui
=25	=25	=25	=25
1f	toll-	1a	toll-
=26	=26	=26	=26
2g/	.	2b-\	.
2f/	.	2a\	.
!	!	!LO:LB:g=original	!
=27	=27	=27	=27
1e	-lis	1g	-lis
=28	=28	=28	=28
1a	pec-	1cc	pec-
=29	=29	=29	=29
2b-\	-ca-	2dd\	-ca-
2b-\	-ta	2dd\	-ta
=30	=30	=30	=30
2g/	mun-	2b-\	mun-
2e/	-di	2g\	-di
=31	=31	=31	=31
1a	.	1cc	.
=32	=32	=32	=32
2f/	Do-	2a\	Do-
2d/	-na	2f/	.
=33	=33	=33	=33
1g	.	1b-	-na
=34	=34	=34	=34
2a\	no-	2cc\	no-
2g\	-bis	2b-\	.
=35	=35	=35	=35
1f	.	1a	-bis
=36	=36	=36	=36
2f/	do-	2a\	do-
2f/	-na	2a\	-na
=37	=37	=37	=37
2g\	no-	2b-\	no-
2a\	-bis	2cc\	-bis
!LO:LB:g=original	!	!	!
=38	=38	=38	=38
2e/	pa-	2cc\	pa-
2d/	.	2bn\	.
=39	=39	=39	=39
1e	-cem	1cc	-cem
=40	=40	=40	=40
2f/	do-	2a\	do-
2g/	.	2b-\	.
=41	=41	=41	=41
2e/	-na	2g\	-na
2f/	.	2a\	.
!	!	!LO:LB:g=original	!
=42	=42	=42	=42
2a\	no-	2cc\	no-
2b-\	.	2dd\	.
=43	=43	=43	=43
2g\	-bis	2b-\	-bis
2a\	.	2cc\	.
=44	=44	=44	=44
2e/	pa-	2g\	pa-
2f/	.	2a\	.
=45	=45	=45	=45
2f/	.	2a\	.
2g/	.	2b-\	.
=46	=46	=46	=46
2g/	.	2b-\	.
2f/	.	2a\	.
=47	=47	=47	=47
2f/	-cem	2a\	-cem
2r	.	2r	.
=48	=48	=48	=48
2r	.	2r	.
2a\	pa-	2cc\	Pa-
!LO:LB:g=original	!	!	!
=49	=49	=49	=49
1b-	.	1dd	.
=50	=50	=50	=50
1a	-cem	1cc	-cem
==	==	==	==
*-	*-	*-	*-
!!!system-decoration: [(s1,s2)]
!!!ENC: Krzysztof Stępień
!!!END: 2020-12-09
!!!ENC: Natalia Wrzos
!!!END: 2022-03-28
